lib/svg/device-camera-video.svg

<svg xmlns="http://www.w3.org/2000/svg" width="16" height="16" viewBox="0 0 16 16"><path d="M15.2 2.09L10 5.72V3c0-.55-.45-1-1-1H1c-.55 0-1 .45-1 1v9c0 .55.45 1 1 1h8c.55 0 1-.45 1-1V9.28l5.2 3.63c.33.23.8 0 .8-.41v-10c0-.41-.47-.64-.8-.41z"/></svg>

<?xml version="1.0" encoding="UTF-8" standalone="no"?>
<svg width="16px" height="16px" viewBox="0 0 16 16" version="1.1" xmlns="http://www.w3.org/2000/svg" xmlns:xlink="http://www.w3.org/1999/xlink">
    <!-- Generator: Sketch 3.8.3 (29802) - http://www.bohemiancoding.com/sketch -->
    <title>device-camera-video</title>
    <desc>Created with Sketch.</desc>
    <defs></defs>
    <g id="Octicons" stroke="none" stroke-width="1" fill="none" fill-rule="evenodd">
        <g id="device-camera-video" fill="#000000">
            <path d="M15.2,2.09 L10,5.72 L10,3 C10,2.45 9.55,2 9,2 L1,2 C0.45,2 0,2.45 0,3 L0,12 C0,12.55 0.45,13 1,13 L9,13 C9.55,13 10,12.55 10,12 L10,9.28 L15.2,12.91 C15.53,13.14 16,12.91 16,12.5 L16,2.5 C16,2.09 15.53,1.86 15.2,2.09 L15.2,2.09 Z" id="Shape"></path>
        </g>
    </g>
</svg>
